X:1
T:Peter and the Wolf (Peter's theme)
C:Sergei Prokofiev
M:4/4
L:1/4
Q:1/4=126
K:C
G A B c | d e d c | B c d e | c4 | G A B c | d c B A | G A B G | c4 |]
